X:1
T:In manus tuas
T:Robert Parsons
T:ed. Jeffrey Quick
T:In manus tuas
T:British Library, R. M. 24. d. 2,  No. 135
C:Robert Parsons
%%score [ 1 2 3 ]
L:1/8
Q:1/4=100
M:4/4
K:F
V:1 treble nm="Alto" snm="A"
V:2 treble-8 nm="Tenor" snm="T"
V:3 bass nm="Bass" snm="B"
V:1
 E4 E4- | E2 E2 F2 F2 | G3 G E4 | z2 E2 A4 | E2 G3 G F2 | E3 F D2 F2- | F2 ED CB,CD | %7
w: In man-|* us tu- as|Do- mi- ne|com- men-|do spi- ri- tum|me- * * *||
 E2 F2 D2 G2- | GFED F2 ED | C2 A2 c4 | B2 A3 A G2 | F4 E2 G2- | GFED C>B, CD | E3 F GAFG | %14
w: ||um, com- men-|do spi- ri- tum|me- * *|||
 E3 D F>A GF | ED F>E DE C2 | D2 CB, A,4 | z8 | z8 | z4 z2 C2 | F4 A3 A | D2 d3 d c2 | %22
w: ||* * * um.|||Re-|de- mi- sti|me Do- mi- ne,|
 B2 A2 G2 F2 | c4 =B2 A2- | AG =B3 A G2 | !fermata!^F8 |] %26
w: De- us ve- ri-|ta- tis, ve-|* ri- ta- * *|tis.|
V:2
 z4 A4 | A6 A2 | B2 B2 c3 c | A4 z2 A2 | c4 B2 A2- | AA G2 F2 D2 | F4 E3 F | E2 A2 GF B2 | G4 A4 | %9
w: In|man- us|tu- as Do- mi-|ne com-|men- do spi-|* ri- tum me- *||||
 E2 F2 E2 A2 | d4 c2 B2- | BA F2 G2 E2 | F2 G2 E2 A2- | AG E2 D2 A2 | c3 B A>c BA | %15
w: * * um, com-|men- do spi-|* ri- tum me- *||||
 c>B A>G F>G E2 | D4 z2 A2 | c4 d3 d | G2 f3 f e2 | c2 d2 e2 c2 | d2 A2 c2 F2- | F2 G2 A4 | %22
w: |um. Re-|de- mi- sti|me Do- mi- ne,|De- us ve- ri-|ta- * * *||
 D2 F2 E2 AB | cd e3 f d2 | c2 =B2 d4 | !fermata!A8 |] %26
w: |||tis.|
V:3
 z8 | z8 | z8 | z8 | z8 | z8 | A,,4 A,,4- | A,,2 A,,2 B,,2 B,,2 | C,3 C, A,,4- | A,,8 | z8 | z8 | %12
w: ||||||In man-|* us tu- as|Do- mi- ne|_|||
 z4 A,,4 | C,4 B,,2 A,,2- | A,,A,, G,,2 F,,4 | A,,8 | z8 | E,2 F,4 G,2- | G,G, D,2 B,3 B, | %19
w: com-|men- do spi-|* ri- tum me-|um.||Re- de- mi-|* sti me Do- mi-|
 A,2 F,2 G,2 A,2 | D,2 F,2- F,E,D,C, | B,,4 A,,4 | z2 A,,2 C,2 D,2 | A,,2 A,2 D,2 F,2 | E,4 =B,,4 | %25
w: ne, De- us ve-|ri- ta- * * * *|||||
 !fermata!D,8 |] %26
w: tis.|

